src/assets/icon/icon-call-trans.svg

<svg viewBox="0 0 89 89" xmlns="http://www.w3.org/2000/svg"><g fill="none" fill-rule="evenodd"><circle cx="44.5" cy="44.5" r="42.5" stroke="#e4c158" stroke-width="3"/><path d="m38.4105718 28.167623-6.5426383-6.5439932c-1.0430293-1.1380858-2.8446253-1.1380858-3.9824755 0l-3.7928337 3.7936193c-.0948209.0948405-.1896417.1896809-.2844626.2845214 0 .0948405-.8533876 1.2329263-2.3705211 1.3277668-1.7067752.1896809-3.7928338-.9484049-5.9737132-3.1297359-.0948209-.0948405-.2844625-.189681-.3792834-.189681-1.9912377-2.0864906-3.1290879-4.0781407-2.9394462-5.7852694.1896417-1.5174477 1.232671-2.371012 1.3274919-2.371012.0948208-.0948405.1896416-.189681.2844625-.2845215l3.8876546-3.8884597c1.1378502-1.1380858 1.1378502-2.84521445 0-3.98330023l-6.5426383-6.54399323c-1.0430293-1.13808579-2.8446253-1.13808579-3.98247544 0l-3.69801294 3.69877878c-.09482084 0-.18964169.09484048-.28446253.18968096-.09482085.09484048-2.93944619 2.560693-3.12908788 7.39755752-.18964169 5.4059075 2.93944619 11.3808578 9.29244278 17.7351701h.09482084v.0948405c6.16335487 6.1646313 11.94742647 9.2943672 17.16257287 9.2943672h.4741042c4.8358631-.189681 7.3012051-3.0348954 7.3960259-3.1297359l3.9824755-3.9833002c.5689251-.5690429.8533876-1.2329263.8533876-1.9916501 0-.7587239-.2844625-1.4226073-.8533876-1.9916502zm-29.96338691-25.98629192c.37928337-.37936193.94820844-.37936193 1.32749182 0l6.54263829 6.54399323c.3792834.37936193.3792834.94840482 0 1.32776679l-3.3187296 3.3194168-7.87013008-7.87175997zm18.49006471 35.18581872c-4.7410422.1896809-10.2406512-2.8452145-16.1195436-8.6304839 0-.0948405-.0948208-.1896809-.1896417-.2845214-5.87889235-5.8801099-8.91315938-11.4756983-8.72351769-16.2177224.09482084-2.75037394 1.13785013-4.55234309 1.89641689-5.40590742l7.8701301 7.87176002c-.5689251.5690428-1.1378501 1.6122881-1.3274918 2.9400549-.1896417 2.2761715 1.0430293 4.8368645 3.6980129 7.492398h.0948209v.0948405c2.3705211 2.4658525 4.7410422 3.6987788 6.9219216 3.6987788.1896417 0 .3792834 0 .6637459-.0948405 1.3274919-.0948405 2.2757003-.6638834 2.8446254-1.2329262l7.7753092 7.7769194c-.7585667.7587239-2.5601628 1.8968097-5.4047881 1.9916502zm10.1458304-6.5439933-3.3187296 3.3194169-7.8701301-7.87176 3.3187296-3.3194168c.3792833-.379362.9482084-.379362 1.3274918 0l6.5426383 6.5439932c.1896417.1896809.2844625.3793619.2844625.6638834 0 .2845214-.0948208.4742024-.2844625.6638833z" fill="#e4c158" fill-rule="nonzero" transform="translate(25.730964 25.730964)"/></g></svg>

<?xml version="1.0" encoding="UTF-8"?>
<svg  viewBox="0 0 89 89" version="1.1" xmlns="http://www.w3.org/2000/svg" xmlns:xlink="http://www.w3.org/1999/xlink">
    <!-- Generator: Sketch 50.2 (55047) - http://www.bohemiancoding.com/sketch -->
    <title>Phone Copy</title>
    <desc>Created with Sketch.</desc>
    <defs></defs>
    <g id="AAC" stroke="none" stroke-width="1" fill="none" fill-rule="evenodd">
        <g id="AAC-Mobile" transform="translate(-116.000000, -1884.000000)">
            <g id="what-happens-when-you-call" transform="translate(0.000000, 1754.000000)">
                <g id="listen" transform="translate(12.000000, 132.000000)">
                    <g id="Phone" transform="translate(106.000000, 0.000000)">
                        <g id="Group-Copy-9" stroke="#E4C158">
                            <g id="Group-4" stroke-width="3">
                                <circle id="Oval" cx="42.5" cy="42.5" r="42.5"></circle>
                            </g>
                        </g>
                        <g id="Communication-Icons-09" transform="translate(23.730964, 23.730964)" fill="#E4C158">
                            <path d="M38.4105718,28.167623 L31.8679335,21.6236298 C30.8249042,20.485544 29.0233082,20.485544 27.885458,21.6236298 L24.0926243,25.4172491 C23.9978034,25.5120896 23.9029826,25.60693 23.8081617,25.7017705 C23.8081617,25.796611 22.9547741,26.9346968 21.4376406,27.0295373 C19.7308654,27.2192182 17.6448068,26.0811324 15.4639274,23.8998014 C15.3691065,23.8049609 15.1794649,23.7101204 15.084644,23.7101204 C13.0934063,21.6236298 11.9555561,19.6319797 12.1451978,17.924851 C12.3348395,16.4074033 13.3778688,15.553839 13.4726897,15.553839 C13.5675105,15.4589985 13.6623313,15.364158 13.7571522,15.2693175 L17.6448068,11.3808578 C18.782657,10.242772 18.782657,8.53564335 17.6448068,7.39755757 L11.1021685,0.853564335 C10.0591392,-0.284521445 8.2575432,-0.284521445 7.11969306,0.853564335 L3.42168012,4.55234312 C3.32685928,4.55234312 3.23203843,4.6471836 3.13721759,4.74202408 C3.04239674,4.83686456 0.197771403,7.30271708 0.00812971389,12.1395816 C-0.181511975,17.5454891 2.9475759,23.5204394 9.30057249,29.8747517 C9.30057249,29.8747517 9.30057249,29.8747517 9.39539333,29.8747517 C9.39539333,29.8747517 9.39539333,29.8747517 9.39539333,29.9695922 C15.5587482,36.1342235 21.3428198,39.2639594 26.5579662,39.2639594 C26.7476079,39.2639594 26.9372496,39.2639594 27.0320704,39.2639594 C31.8679335,39.0742784 34.3332755,36.229064 34.4280963,36.1342235 L38.4105718,32.1509233 C38.9794969,31.5818804 39.2639594,30.917997 39.2639594,30.1592732 C39.2639594,29.4005493 38.9794969,28.7366659 38.4105718,28.167623 Z M8.44718489,2.18133108 C8.82646826,1.80196915 9.39539333,1.80196915 9.77467671,2.18133108 L16.317315,8.72532431 C16.6965984,9.10468624 16.6965984,9.67372913 16.317315,10.0530911 L12.9985854,13.3725079 L5.12845532,5.50074793 L8.44718489,2.18133108 Z M26.9372496,37.3671498 C22.1962074,37.5568307 16.6965984,34.5219353 10.817706,28.7366659 C10.817706,28.6418254 10.7228852,28.546985 10.6280643,28.4521445 C4.74917195,22.5720346 1.71490492,16.9764462 1.90454661,12.2344221 C1.99936745,9.48404816 3.04239674,7.68207901 3.8009635,6.82851468 L11.6710936,14.7002747 C11.1021685,15.2693175 10.5332435,16.3125628 10.3436018,17.6403296 C10.1539601,19.9165011 11.3866311,22.4771941 14.0416147,25.1327276 C14.0416147,25.1327276 14.0416147,25.1327276 14.1364356,25.1327276 C14.1364356,25.1327276 14.1364356,25.1327276 14.1364356,25.2275681 C16.5069567,27.6934206 18.8774778,28.9263469 21.0583572,28.9263469 C21.2479989,28.9263469 21.4376406,28.9263469 21.7221031,28.8315064 C23.049595,28.7366659 23.9978034,28.167623 24.5667285,27.5985802 L32.3420377,35.3754996 C31.583471,36.1342235 29.7818749,37.2723093 26.9372496,37.3671498 Z M37.08308,30.8231565 L33.7643504,34.1425734 L25.8942203,26.2708134 L29.2129499,22.9513966 C29.5922332,22.5720346 30.1611583,22.5720346 30.5404417,22.9513966 L37.08308,29.4953898 C37.2727217,29.6850707 37.3675425,29.8747517 37.3675425,30.1592732 C37.3675425,30.4437946 37.2727217,30.6334756 37.08308,30.8231565 Z" id="Shape" fill-rule="nonzero"></path>
                        </g>
                    </g>
                </g>
            </g>
        </g>
    </g>
</svg>
